icons/arrow-upwards.svg

<svg width="24" height="24" viewBox="0 0 24 24" fill="none" xmlns="http://www.w3.org/2000/svg">
<path fill-rule="evenodd" clip-rule="evenodd" d="M19.8288 8.18337L15.603 13.8961L15.5698 13.9409L15.5303 13.9804C14.847 14.6637 13.8261 14.6571 13.15 14.15L13.085 14.1013L13.0319 14.0397L10.5867 11.2032C10.5009 11.1476 10.4352 11.1427 10.3996 11.1463C10.3543 11.1508 10.3215 11.1713 10.3 11.2L10.2828 11.2229L10.264 11.2445L3.86395 18.5444C3.59088 18.8559 3.11703 18.887 2.80557 18.6139C2.49411 18.3409 2.46298 17.867 2.73605 17.5555L9.11991 10.274C9.70149 9.52881 10.7772 9.43135 11.5685 10.0644L11.6227 10.1077L11.668 10.1603L14.0991 12.9803C14.2068 13.034 14.3399 13.0244 14.4399 12.9461L19.0281 6.74349L15.8365 6.89916C15.4228 6.91934 15.0711 6.60031 15.0509 6.18659C15.0307 5.77287 15.3497 5.42112 15.7635 5.40094L19.8635 5.20096L19.8817 5.20007H19.9C20.1836 5.20007 20.4878 5.28592 20.7418 5.48233C20.7777 5.50074 20.8125 5.5223 20.846 5.54706C20.9923 5.65526 21.0879 5.80655 21.1282 5.97042C21.205 6.1397 21.2471 6.32839 21.2498 6.52874L21.4491 10.6135C21.4693 11.0272 21.1503 11.379 20.7365 11.3992C20.3228 11.4193 19.9711 11.1003 19.9509 10.6866L19.8288 8.18337Z" fill="black"/>
</svg>

<svg xmlns="http://www.w3.org/2000/svg" fill="none" viewBox="0 0 24 24">
  <path fill="#000" fill-rule="evenodd" d="m19.829 8.183-4.226 5.713-.033.045-.04.04a1.82 1.82 0 0 1-2.38.169l-.065-.049-.053-.061-2.445-2.837a.293.293 0 0 0-.187-.057.137.137 0 0 0-.1.054l-.017.023-.019.021-6.4 7.3a.75.75 0 1 1-1.128-.989l6.384-7.281c.581-.745 1.657-.843 2.449-.21l.054.044.045.052 2.431 2.82a.32.32 0 0 0 .34-.034l4.59-6.203-3.193.156a.75.75 0 1 1-.072-1.498l4.1-.2h.036c.284 0 .588.085.842.281a.754.754 0 0 1 .386.488c.077.17.12.358.122.559l.2 4.085a.75.75 0 1 1-1.5.073l-.121-2.504Z" clip-rule="evenodd"/>
</svg>
